X: 18244
T: Humours Of Lisheen, The
R: jig
M: 6/8
K: Gmajor
d|:efg edB|cBA BGD|G3 BdB|BAG ABd|
efg edB|cBA BGD|G3 BdB|1 AGF GBd:|2 AGF G2G||
|:GBd g3|agf g2e|fed edB|cBA BGD|
GBd g3|agf g2e|fed edB|1 cAF G2D:|2 cAF G2d||

